X: 618
T: Düşeli Bu Aşkın
C: Dede Efendi
O: Turkey
F: http://compmusic.upf.edu/node/140
N: muhayyer--ilahi--sofyan--duseli_bu_askin--dede_efendi
N: makam= muhayyer
N: form= ilahi
N: usul= sofyan = 4/4
M: 4/4
L: 1/16
K: C _2/4B ^3/4f  
Q: 1/4=60
%%MIDI tuningsystem comma53
g4 a4 a8  | _1/4b3a g2b2 a8  | _1/4b4 c'4 c'2d'2 c'2b2  | \
w:   |   |   | 
_1/4b2a4c'2 b3a g4  | g8 d'4 d'2c'2  | 
w:   |   | 
c'4 c'2_1/4b2 b4 a4  | _1/4b3a b2c'2 b2c'2 b2a2  | \
w:   |   | 
a8 c'2_1/4ba a4  | z2g4a2 a8  | 
w:   |   | 
a4 a2g2 a3g =f4  | =f2c'2 _1/4b2a2 a4 g2f2  | \
w:   |   | 
e2d2 e2c2 c3_1/4B A4  | A2_1/4B2 c2d2 e4 e2d2  | 
w:   |   | 
z2c4d2 c3_1/4B A4  | A2_1/4B2 c2d2 e2^f2 g2f2  | \
w:   |   | 
g3_1/4b a2g2 g2^fe e4  | 
w:   | 
e3d c2d2 e6^f2  | d4 a4 a8  | g4 a2g2 ^f2g2 e2d2  | \
w:   |   |   | 
z2dc d2e2 c2d2 c_1/4BA4A2 B2A2 G2e2 =f2e2  | 
w:   | 
d2z2 c4 d2c2 d2c_1/4B  | A4 _1/4B3A B2c2 B2c2  | \
w:   |   | 
_1/4B2A2 A8 A4  | z4 c'8 c'8 d'3c' _1/4b2d'2 c'4  | 
w:   |   | 
z4 _1/4b4 c'4 c'2e'2  | d'2c'2 _1/4b2b2 a2c'2 b2a2  | \
w:   |   | 
g2^f2 g8 d'4  | d'2c'2 c'4 c'2_1/4b2 b4  | 
w:   |   | 
a4 _1/4b3a b2c'2 b2c'2  | _1/4b2a2 a8 c'2ba  | \
w:   |   | 
a4 z2g4a2 a8 a4 a2g2 a3g  | 
w:   | 
=f4 f2c'2 _1/4b2a2 a4  | g2=f2 e2d2 e2c2 c3_1/4B  | \
w:   |   | 
A4 A2_1/4B2 c2d2 e4  | e2d2 z2c4d2 c3_1/4B  | 
w:   |   | 
A4 A2_1/4B2 c2d2 e2^f2  | g2^f2 g3_1/4b a2g2 g2fe  | \
w:   |   | 
e4 e3d c2d2 e6^f2 d4 a4 a8 g4 a2g2 f2g2  | 
w:   | 
e2d2 z2dc d2e2 c2d2  | c_1/4BA4A2 B2A2 G2e2  | \
w:   |   | 
=f2e2 d2z2 c4 d2c2  | 
w:   | 
d2c_1/4B A4 B3A B2c2  | _1/4B2c2 B2A2 A8  | \
w:   |   | 
A4 z4 |
w:   | 


